src/main/webapp/images/icons/ROR_logo.svg

<svg clip-rule="evenodd" fill-rule="evenodd" stroke-linejoin="round" stroke-miterlimit="2" viewBox="0 0 164 118" xmlns="http://www.w3.org/2000/svg"><path d="m0 0h164.94v119.27h-164.94z" fill="#fff" transform="scale(.994301 .989352)"/><g fill-rule="nonzero" transform="translate(-.945 -.815)"><g fill="#53baa1"><path d="m68.65 4.16-12.13 18.58-12.14-18.58z"/><path d="m119.41 4.16-12.13 18.58-12.14-18.58z"/><path d="m44.38 115.47 12.14-18.59 12.13 18.59z"/><path d="m95.14 115.47 12.14-18.59 12.13 18.59z"/></g><path d="m145.53 63.71c4.3-.8 7.57-2.71 9.8-5.72 2.24-3.01 3.35-6.67 3.35-10.96 0-3.56-.62-6.52-1.85-8.9s-2.9-4.27-4.99-5.68c-2.09-1.4-4.53-2.41-7.31-3.01s-5.72-.9-8.81-.9h-23.56v18.83c-.19-.55-.39-1.09-.61-1.63-1.63-3.95-3.91-7.32-6.84-10.1s-6.39-4.92-10.41-6.41c-4.01-1.49-8.4-2.24-13.16-2.24s-9.14.75-13.16 2.24c-4.01 1.49-7.48 3.63-10.41 6.41-2.62 2.49-4.72 5.46-6.3 8.9-.23-2.47-.81-4.61-1.74-6.41-1.23-2.38-2.9-4.27-4.99-5.68-2.09-1.4-4.53-2.41-7.31-3.01s-5.72-.9-8.81-.9h-23.55v60.88h13.41v-24.34h6.62l12.73 24.34h16.08l-15.47-25.71c4.3-.8 7.57-2.71 9.8-5.72.1-.14.19-.29.29-.43-.02.47-.03.94-.03 1.42 0 4.87.82 9.29 2.45 13.24s3.91 7.32 6.84 10.1c2.92 2.78 6.39 4.92 10.41 6.41 4.01 1.49 8.4 2.24 13.16 2.24s9.14-.75 13.16-2.24c4.01-1.49 7.48-3.63 10.41-6.41 2.92-2.78 5.2-6.15 6.84-10.1.22-.53.42-1.08.61-1.63v18.83h13.41v-24.34h6.62l12.73 24.34h16.08zm-109.14-12.9c-.72.92-1.62 1.59-2.71 2.02s-2.31.69-3.65.77c-1.35.09-2.62.13-3.83.13h-7.91v-13.84h8.77c1.2 0 2.44.09 3.7.26s2.38.5 3.35.99 1.78 1.19 2.41 2.11.95 2.15.95 3.7c0 1.65-.36 2.94-1.08 3.86zm62.35 16.04c-.89 2.38-2.16 4.44-3.83 6.19-1.66 1.75-3.65 3.11-5.98 4.09-2.32.98-4.92 1.46-7.78 1.46-2.87 0-5.46-.49-7.78-1.46s-4.31-2.34-5.98-4.09c-1.66-1.75-2.94-3.81-3.83-6.19s-1.33-5-1.33-7.87c0-2.81.44-5.42 1.33-7.83s2.16-4.48 3.83-6.23c1.66-1.75 3.65-3.11 5.98-4.09 2.32-.97 4.91-1.46 7.78-1.46s5.46.49 7.78 1.46 4.31 2.34 5.98 4.09c1.66 1.75 2.94 3.83 3.83 6.23.89 2.41 1.33 5.02 1.33 7.83 0 2.87-.44 5.49-1.33 7.87zm44.94-16.04c-.72.92-1.62 1.59-2.71 2.02s-2.31.69-3.65.77c-1.35.09-2.62.13-3.83.13h-7.91v-13.84h8.77c1.2 0 2.44.09 3.7.26s2.38.5 3.35.99 1.78 1.19 2.41 2.11.95 2.15.95 3.7c0 1.65-.36 2.94-1.08 3.86z" fill="#202826"/></g></svg>

<?xml version="1.0" encoding="UTF-8" standalone="no"?>
<!DOCTYPE svg PUBLIC "-//W3C//DTD SVG 1.1//EN" "http://www.w3.org/Graphics/SVG/1.1/DTD/svg11.dtd">
<svg width="100%" height="100%" viewBox="0 0 164 118" version="1.1" xmlns="http://www.w3.org/2000/svg" xmlns:xlink="http://www.w3.org/1999/xlink" xml:space="preserve" xmlns:serif="http://www.serif.com/" style="fill-rule:evenodd;clip-rule:evenodd;stroke-linejoin:round;stroke-miterlimit:2;">
    <g transform="matrix(0.994301,0,0,0.989352,0,0)">
        <rect x="0" y="0" width="164.94" height="119.27" style="fill:white;"/>
    </g>
    <g transform="matrix(1,0,0,1,-0.945,-0.815)">
        <path d="M68.65,4.16L56.52,22.74L44.38,4.16L68.65,4.16Z" style="fill:rgb(83,186,161);fill-rule:nonzero;"/>
        <path d="M119.41,4.16L107.28,22.74L95.14,4.16L119.41,4.16Z" style="fill:rgb(83,186,161);fill-rule:nonzero;"/>
        <path d="M44.38,115.47L56.52,96.88L68.65,115.47L44.38,115.47Z" style="fill:rgb(83,186,161);fill-rule:nonzero;"/>
        <path d="M95.14,115.47L107.28,96.88L119.41,115.47L95.14,115.47Z" style="fill:rgb(83,186,161);fill-rule:nonzero;"/>
        <path d="M145.53,63.71C149.83,62.91 153.1,61 155.33,57.99C157.57,54.98 158.68,51.32 158.68,47.03C158.68,43.47 158.06,40.51 156.83,38.13C155.6,35.75 153.93,33.86 151.84,32.45C149.75,31.05 147.31,30.04 144.53,29.44C141.75,28.84 138.81,28.54 135.72,28.54L112.16,28.54L112.16,47.37C111.97,46.82 111.77,46.28 111.55,45.74C109.92,41.79 107.64,38.42 104.71,35.64C101.78,32.86 98.32,30.72 94.3,29.23C90.29,27.74 85.9,26.99 81.14,26.99C76.38,26.99 72,27.74 67.98,29.23C63.97,30.72 60.5,32.86 57.57,35.64C54.95,38.13 52.85,41.1 51.27,44.54C51.04,42.07 50.46,39.93 49.53,38.13C48.3,35.75 46.63,33.86 44.54,32.45C42.45,31.05 40.01,30.04 37.23,29.44C34.45,28.84 31.51,28.54 28.42,28.54L4.87,28.54L4.87,89.42L18.28,89.42L18.28,65.08L24.9,65.08L37.63,89.42L53.71,89.42L38.24,63.71C42.54,62.91 45.81,61 48.04,57.99C48.14,57.85 48.23,57.7 48.33,57.56C48.31,58.03 48.3,58.5 48.3,58.98C48.3,63.85 49.12,68.27 50.75,72.22C52.38,76.17 54.66,79.54 57.59,82.32C60.51,85.1 63.98,87.24 68,88.73C72.01,90.22 76.4,90.97 81.16,90.97C85.92,90.97 90.3,90.22 94.32,88.73C98.33,87.24 101.8,85.1 104.73,82.32C107.65,79.54 109.93,76.17 111.57,72.22C111.79,71.69 111.99,71.14 112.18,70.59L112.18,89.42L125.59,89.42L125.59,65.08L132.21,65.08L144.94,89.42L161.02,89.42L145.53,63.71ZM36.39,50.81C35.67,51.73 34.77,52.4 33.68,52.83C32.59,53.26 31.37,53.52 30.03,53.6C28.68,53.69 27.41,53.73 26.2,53.73L18.29,53.73L18.29,39.89L27.06,39.89C28.26,39.89 29.5,39.98 30.76,40.15C32.02,40.32 33.14,40.65 34.11,41.14C35.08,41.63 35.89,42.33 36.52,43.25C37.15,44.17 37.47,45.4 37.47,46.95C37.47,48.6 37.11,49.89 36.39,50.81ZM98.74,66.85C97.85,69.23 96.58,71.29 94.91,73.04C93.25,74.79 91.26,76.15 88.93,77.13C86.61,78.11 84.01,78.59 81.15,78.59C78.28,78.59 75.69,78.1 73.37,77.13C71.05,76.16 69.06,74.79 67.39,73.04C65.73,71.29 64.45,69.23 63.56,66.85C62.67,64.47 62.23,61.85 62.23,58.98C62.23,56.17 62.67,53.56 63.56,51.15C64.45,48.74 65.72,46.67 67.39,44.92C69.05,43.17 71.04,41.81 73.37,40.83C75.69,39.86 78.28,39.37 81.15,39.37C84.02,39.37 86.61,39.86 88.93,40.83C91.25,41.8 93.24,43.17 94.91,44.92C96.57,46.67 97.85,48.75 98.74,51.15C99.63,53.56 100.07,56.17 100.07,58.98C100.07,61.85 99.63,64.47 98.74,66.85ZM143.68,50.81C142.96,51.73 142.06,52.4 140.97,52.83C139.88,53.26 138.66,53.52 137.32,53.6C135.97,53.69 134.7,53.73 133.49,53.73L125.58,53.73L125.58,39.89L134.35,39.89C135.55,39.89 136.79,39.98 138.05,40.15C139.31,40.32 140.43,40.65 141.4,41.14C142.37,41.63 143.18,42.33 143.81,43.25C144.44,44.17 144.76,45.4 144.76,46.95C144.76,48.6 144.4,49.89 143.68,50.81Z" style="fill:rgb(32,40,38);fill-rule:nonzero;"/>
    </g>
</svg>
